xs/img/xs-colored.svg

<svg xmlns:xlink="http://www.w3.org/1999/xlink" height="173.7" width="118.1" xmlns="http://www.w3.org/2000/svg"><use height="173.7" width="118.1" xlink:href="#a"/><defs><path d="M101.55 7.5l-.45 1.6-.6 1.5-.55.25-.5.25q-.3.25-.5.95l-.35 1.05-.5.6q-.45.4-.55.5-.6.9-1.1 2.3l-.15 1.7-1.15.85-.55 1.35-.45 1.35-.55.55-.5.6-.2.85-.2.8-.7.5q-1.55 2.05-2 3.05l-.2 1.7-.5.55q-.45.3-.55.55l-.15 1.55-1.15 1.15-.6 1.5-.55.35-.5.4-.15.9-1.6 2.25-1.05.9-.15.65-.8.75v.65l-.35.35-.45.25q-.55.8-.95 2.05l-.15 1.4-.95.9-.4 1.15-.45.6-.45.65-.15.75-.95 1.1-.95 1.1-.25 1.15-.3 1.1-1.05.9-.45 1-.65.6q-.5.35-.65.55-.3.4-.5 1.2l-.45 1.35-.85 1.25-.9 1.3-1.1 2.8-.1.75-.2.65-1.55 1.1-.15 1.55-.75.8-.7.75-.3 1.15-.3 1.15L63.3 75l-1.1 3.15q-.1.45.1 1l.25 1.1h.4q.35-.55 1.25-1.15l1.25-1q1.5-1.9 4.5-4.15l.8-1.1.8-.4.9-.35 1.1-1.05 1.1-1.1q.3-.15.9-.35l.85-.35.9-1 1.15-.4.3-.5.25-.5q.25-.2 1.05-.4.8-.15 1.05-.5l.25-.55.3-.6 1-.15.95-.25 1.05-1.05 1-.1 1.9-1.25q.7-.45 1.9-.75l2.1-.55 1.15-.5 1.1-.6 3.05-.25 3.4.15 1.4-.1h1.4l2.6-.05q1.8.55 3.35 1.65l2.75 2.15q1.3.9 2.3 1.15.3-.35 1.15.3l1.3.95.85 1.2.65 1.3q.2.8-.1 1.75l-.6 1.3q-.75 1.4-2.9 2.75l-3.7 1.85-2.9 1.75q-1.75 1-3.6.95l-1.1-1.15q-.55-.7-.55-1.75.7-.6.8-1.15l.65-.6q.2-.35-.8-.55-1.6-1.9-1.55-2.2l-1.55-1.05q-.8-.8-1.5-.95-.75-.15-1.4.4l-.95.95-1.4.45q-1.9 1.15-3.55 1.5-.25 1.05-.9 1.35l-1.75.5-1.55 1.25q-.25.25-.55 1l-.55.9-.7.3-.85.15q-.4.2-.95.65l-.9.65-.9.2q-.35.25-.6.95l-.5 1.1-1.1.95-1.1.95-.65 1.05-.7 1.1-.65.3-.65.3-.25.65-.2.65-.65.6q-.2.25-.25.7l-.15.85-.45.7-.4.65.05 1.35.3 1.3q.65.15.9.8l.6 1q.75.6 2.35.8l2.55.35 1.4-.1.5.4.4.4 1.4-.2 1.7-.1.3.25.35.25 1.15.05q2.85.8 3.85.6l1.55-.25 1.6.3 1.5.05 2.75-.25 2.95.1.3.3.35.25 1.15.35 1.15.2 1.65.05.9.55 1.8.05.5.4 1.55.5 1.4.6 1.05 1.15 1.15.55q.35.5.55 1.7 1.8 4.65 1.3 6.35l-.6 1.9q-.4 1.15-.4 2.2l.45.25.3.4q0 1.9-.3 2.3l-3.85 4.05-.9.6q-.15.25-.15.85l-.15.7-1.65 1.3-1.9 1.05-.7 1.05-1.2.7q-.9.35-1.25.65l-.85.85-.85.9-.65.25-.65.25q-.2.1-.65.55l-.7.55-.95.25-.85.2-.95.9-.9.1-.55.65-1.2.35-1.25.35-1 .8-1.1.8-1.85.5-.8 1.1-.9 1.05-1.4.25-1.6.05-.5.45-.55.45-1 .2-1.05.15-2.5.95-1.15.1q-.4.15-1.4.95l-1.65 1.05-1.4.1-1.7.85-2.8.6-2.8.4h-1.65l-1.45.6-3.85-.2-3.85-.25-4.4-1-.9-1.3q0-.85.3-1.6l.45-1.35 1.15-.8 1.1-.85 1-.35.35-.45.35-.4 1.3-.35.75-.7q.4-.45.85-.55L60 136l2.65-.3.55-.4.55-.45q.3-.2.8-.3l.9-.3.65-.5q.35-.4.65-.5l.9-.1 1.95-1.4 1.75-.6 1.8-.6.7-.7.6-.85.6-.4.35-.7-.3-.05-1.1-.05-1.2-.1-2.4-1.95-.3-.9-.3-.9-.4-.5-.35-.45-.2-.9-.3-.8-1.5-1.55-.1-1.2-.7-1.3h-.3q0 1.35-.7 1.8-1.1.75-2-.5l-1.15-2-1.4-1.35-.2-.7-.15-.85-.35-.45-.4-.45-.35-1.2-.4-1.15-1-1.5-.95-1.5-.2-.7-.15-.6-1-1.35-.9-1.4-.45-1.65-.5-1.6-1-1.15-1.15-1.1-.65-.85q-.4-.5-.9-.6l-.25.4-.25.35-.1 1-.2.8-.95.85-.9.8v.35l-.5.55-.45.6-.15 1.15-.55.4q-.15.25-.35.85l-.45.8-.75.9-.7.85-.15.95-.55.45-.65.35-.3.75-.2.7-1.25 1.45-1.2 1.45-.8 1.8-.8 1.75-.9.75-.15.4-.15.35-.95.8-.2.8-.2.7-.95.9-.2 1.05-.3.85-1.35 1.15q-.25.3-.45.95l-.35.95-1.5 2q-.95 1.25-1.35 2.05v.65l-1.05 2.05-1.05 1.35-1 1.4-.1 1.15-.65.55-.7.5q-.3.35-.5 1.25l-.45 1.25-.95.9-1.35 3.05-.95.9-.15 1.35-1.2 1.15-.35 1.15-.3 1.05-1.9 3.05-.35.75-.35.75-.8.65q-.4.65-1.05 2.25l-1.1 2.2-.8.9-.8.9-.15.6-.75.65-.15.5-.15.4-.35.1-.45.1-.25.6-.3.55-.95.75q-.7.4-.85.75-.4.65-.65 1.7l-.6 1.75-1.1 1.65-.4 1.05-.7.7-2.3.15-.25-.45q-.5-.65.1-2.85l.95-2.9-.7-.2-.45-.5q-.8-.9 1.3-4.7l.2-.75.2-.8.55-.8.55-.85.15-1q.05-.6.25-.9l2.55-4.2.3-1.15.9-1.3.6-1.75.9-1.4.8-1.5.25-.8.2-.75 2.45-3.8.7-1.85.9-1.75 1.45-2 1.35-2.15.85-1.95.95-1.9 1.55-2 1-2 .65-.5.2-.75.2-.7 2.45-4.1 2.55-4 .65-1.95 1.75-2.4.55-1.65 1.2-1.1.55-1.25q.25-.95.55-1.3l.85-1.05.85-1.1.3-.85.3-.8 1.45-2.25q.9-1.35 1.1-2.5-.55-.3-.75-1.15-.2-.95.3-1.55.2-.6 1.1-1.75l1.3-1.65 1.35-2.55q.8-1.75 1.35-2.55.3-.45 1.55-.85l1.3-.6.45-.65v-.4l-.4-.4.2-1.9-1.15-1.85-.2-1.55-1.5-2.35-.4-1.1-.3-1.25-.4-.25-.3-.8-.3-.75-1.4-1.2-.25-1.15-.55-.75-.6-.85-.5-1.8-.65-1.7-.8-.9-.75-.9-.35-1.35-.35-1.3-.85-.9-.25-.6-.1-.7-.6-.9-.55-.9-1.35-3.25-1.5-2.5-.6-1.7-.5-.65q-.1-.2-.05-.85l-.2-.7-.4-.15-.7-1.15-.4-1.15-.6-.95-.1-.9-.8-1.1-.65-1.25-.25-1.3-.75-1.05v-.5l-.6-.35-.55-.45q-.2-.65.25-1.4.4-.75.85-.9.55-.4 1.8-.45l2.05.05q.15-1.1.65-1.25l1.35-.25.4-.5q1.15-.75 2.7-.75L33.1 29l1.05.1.8.55.75.65.8.1 1 .05.65.7.5.75.55.25.6.3v.15l.35.75 1.6 1.45.5 1.75q.3 1.3.5 1.65l.65.45.75.45.2.65.15.65.7.9.7.95.45 1.3.5 1.3 1.65 2.5.35 1.4.5.6.45.7v.8l.75 1.15.1.8.95 1.75 1.05 1.65.5 1.35.45 1.5.6.9.4 1.05-.3 1.65.8.8.95.55.5-.5.35-.65q-1.15-.65-.5-2.4.3-.75 1.35-2.35 3.9-5.65 7.7-13.7l1.1-1.8 1.2-1.6.35-1 .3-.95.55-.7.55-.7.15-.7.15-.75.35-.3.4-.3.15-.5.15-.5.4-.5.4-.5.15-.7.15-.75.85-1.4.9-1.35.45-1.8.65-.65.55-1.55.65-1.5q.95-1.55 3.2-3.95.35-.3.5-1.3l.35-1.5q.2-.4.95-1.15l.9-1.25.15-1.25.45-.5.35-.5.4-1.15q.15-.7.4-1.05l.7-.35.45-1.4 1.85-3.2q1.2-1.85 2.5-2.65l1.25-.1 1.35-.05.6-.6.75-.55.75-.15.9-.1.75-.45q.5-.45.8-.5l3.4-.1 3.2.45.65.95q0 1.9-.65 3.4l-1.35 2.6m-22 96.55l-.8.65-3.05.5h-3.55l.5 1.3.65 1.15.05 2.45.5.85.5.8.1 1.35.75.8q.65 1 1.25 3.1l.65 1.2.65 1.3v1l.5.9v.75l.35.45.4.5.1 1.8q-.05 1 .3 1.55l.8.15q.5-.45 1.35-.85l1.5-.75.8-.75 1.3-.35.85-.95q.5-.5 1-.7l1.2-.1.45-.35.45-.4 1.15-.35.6-.75.5-.8.8-.5.9-.35 1.05-1.25q2.65-1.65 4-3.15 2-2.15 2.4-4.8l-2.05-1.95q-.4-.3-1.3-.3l-1.5-.2-.8-.8-2.55-.3-1.65-.55-.4-.4q-.6-.25-1.45.2l-1.55.25q-.3-.05-.65-.35l-.6-.45-4 .05-1.1-.5-1.35-.1" fill="url(#b)" fill-rule="evenodd" id="a"/><linearGradient gradientTransform="matrix(0 .106 .106 0 59 86.8)" gradientUnits="userSpaceOnUse" id="b" x1="-819.2" x2="819.2"><stop offset="0" stop-color="#ffeb00"/><stop offset=".498" stop-color="#f09017"/><stop offset="1" stop-color="#df001e"/></linearGradient></defs></svg>

<?xml version="1.0" encoding="UTF-8" standalone="no"?>
<svg xmlns:xlink="http://www.w3.org/1999/xlink" height="173.7px" width="118.1px" xmlns="http://www.w3.org/2000/svg">
  <g transform="matrix(1, 0, 0, 1, 0.0, 0.0)">
    <use height="173.7" transform="matrix(1.0, 0.0, 0.0, 1.0, 0.0, 0.0)" width="118.1" xlink:href="#shape0"/>
  </g>
  <defs>
    <g id="shape0" transform="matrix(1, 0, 0, 1, 0.0, 0.0)">
      <path d="M101.55 7.5 L101.1 9.1 100.5 10.6 99.95 10.85 99.45 11.1 Q99.15 11.35 98.95 12.05 L98.6 13.1 98.1 13.7 Q97.65 14.1 97.55 14.2 96.95 15.1 96.45 16.5 L96.3 18.2 95.15 19.05 94.6 20.4 94.15 21.75 93.6 22.3 93.1 22.9 92.9 23.75 92.7 24.55 92.0 25.05 Q90.45 27.1 90.0 28.1 L89.8 29.8 89.3 30.35 Q88.85 30.65 88.75 30.9 L88.6 32.45 87.45 33.6 86.85 35.1 86.3 35.45 85.8 35.85 85.65 36.75 84.05 39.0 83.0 39.9 82.85 40.55 82.05 41.3 82.05 41.95 81.7 42.3 81.25 42.55 Q80.7 43.35 80.3 44.6 L80.15 46.0 79.2 46.9 78.8 48.05 78.35 48.65 77.9 49.3 77.75 50.05 76.8 51.15 75.85 52.25 75.6 53.4 75.3 54.5 74.25 55.4 73.8 56.4 73.15 57.0 Q72.65 57.35 72.5 57.55 72.2 57.95 72.0 58.75 L71.55 60.1 70.7 61.35 69.8 62.65 68.7 65.45 68.6 66.2 68.4 66.85 66.85 67.95 66.7 69.5 65.95 70.3 65.25 71.05 64.95 72.2 64.65 73.35 63.3 75.0 62.2 78.15 Q62.1 78.6 62.3 79.15 L62.55 80.25 62.95 80.25 Q63.3 79.7 64.2 79.1 L65.45 78.1 Q66.95 76.2 69.95 73.95 L70.75 72.85 71.55 72.45 72.45 72.1 73.55 71.05 74.65 69.95 Q74.95 69.8 75.55 69.6 L76.4 69.25 77.3 68.25 78.45 67.85 78.75 67.35 79.0 66.85 Q79.25 66.65 80.05 66.45 80.85 66.3 81.1 65.95 L81.35 65.4 81.65 64.8 82.65 64.65 83.6 64.4 84.65 63.35 85.65 63.25 87.55 62.0 Q88.25 61.55 89.45 61.25 L91.55 60.7 92.7 60.2 93.8 59.6 96.85 59.35 100.25 59.5 101.65 59.4 103.05 59.4 105.65 59.35 Q107.45 59.9 109.0 61.0 L111.75 63.15 Q113.05 64.05 114.05 64.3 114.35 63.95 115.2 64.6 L116.5 65.55 117.35 66.75 118.0 68.05 Q118.2 68.85 117.9 69.8 L117.3 71.1 Q116.55 72.5 114.4 73.85 L110.7 75.7 107.8 77.45 Q106.05 78.45 104.2 78.4 L103.1 77.25 Q102.55 76.55 102.55 75.5 103.25 74.9 103.35 74.35 L104.0 73.75 Q104.2 73.4 103.2 73.2 101.6 71.3 101.65 71.0 L100.1 69.95 Q99.3 69.15 98.6 69.0 97.85 68.85 97.2 69.4 L96.25 70.35 94.85 70.8 Q92.95 71.95 91.3 72.3 91.05 73.35 90.4 73.65 L88.65 74.15 87.1 75.4 Q86.85 75.65 86.55 76.4 L86.0 77.3 85.3 77.6 84.45 77.75 Q84.05 77.95 83.5 78.4 L82.6 79.05 81.7 79.25 Q81.35 79.5 81.1 80.2 L80.6 81.3 79.5 82.25 78.4 83.2 77.75 84.25 77.05 85.35 76.4 85.65 75.75 85.95 75.5 86.6 75.3 87.25 74.65 87.85 Q74.45 88.1 74.4 88.55 L74.25 89.4 73.8 90.1 73.4 90.75 73.45 92.1 73.75 93.4 Q74.4 93.55 74.65 94.2 L75.25 95.2 Q76.0 95.8 77.6 96.0 L80.15 96.35 81.55 96.25 82.05 96.65 82.45 97.05 83.85 96.85 85.55 96.75 85.85 97.0 86.2 97.25 87.35 97.3 Q90.2 98.1 91.2 97.9 L92.75 97.65 94.35 97.95 95.85 98.0 98.6 97.75 101.55 97.85 101.85 98.15 102.2 98.4 103.35 98.75 104.5 98.95 106.15 99.0 107.05 99.55 108.85 99.6 109.35 100.0 110.9 100.5 112.3 101.1 113.35 102.25 114.5 102.8 Q114.85 103.3 115.05 104.5 116.85 109.15 116.35 110.85 L115.75 112.75 Q115.35 113.9 115.35 114.95 L115.8 115.2 116.1 115.6 Q116.1 117.5 115.8 117.9 L111.95 121.95 111.05 122.55 Q110.9 122.8 110.9 123.4 L110.75 124.1 109.1 125.4 107.2 126.45 106.5 127.5 105.3 128.2 Q104.4 128.55 104.05 128.85 L103.2 129.7 102.35 130.6 101.7 130.85 101.05 131.1 Q100.85 131.2 100.4 131.65 L99.7 132.2 98.75 132.45 97.9 132.65 96.95 133.55 96.05 133.65 95.5 134.3 94.3 134.65 93.05 135.0 92.05 135.8 90.95 136.6 89.1 137.1 88.3 138.2 87.4 139.25 86.0 139.5 84.4 139.55 83.9 140.0 83.35 140.45 82.35 140.65 81.3 140.8 78.8 141.75 77.65 141.85 Q77.25 142.0 76.25 142.8 L74.6 143.85 73.2 143.95 71.5 144.8 68.7 145.4 65.9 145.8 64.25 145.8 62.8 146.4 58.95 146.2 55.1 145.95 50.7 144.95 49.8 143.65 Q49.8 142.8 50.1 142.05 L50.55 140.7 51.7 139.9 52.8 139.05 53.8 138.7 54.15 138.25 54.5 137.85 55.8 137.5 56.55 136.8 Q56.95 136.35 57.4 136.25 L60.0 136.0 62.65 135.7 63.2 135.3 63.75 134.85 Q64.05 134.65 64.55 134.55 L65.45 134.25 66.1 133.75 Q66.45 133.35 66.75 133.25 L67.65 133.15 69.6 131.75 71.35 131.15 73.15 130.55 73.85 129.85 74.45 129.0 75.05 128.6 75.4 127.9 75.1 127.85 74.0 127.8 72.8 127.7 70.4 125.75 70.1 124.85 69.8 123.95 69.4 123.45 69.05 123.0 68.85 122.1 68.55 121.3 67.05 119.75 66.95 118.55 66.25 117.25 65.95 117.25 Q65.95 118.6 65.25 119.05 64.15 119.8 63.25 118.55 L62.1 116.55 60.7 115.2 60.5 114.5 60.35 113.65 60.0 113.2 59.6 112.75 59.25 111.55 58.85 110.4 57.85 108.9 56.9 107.4 56.7 106.7 56.55 106.1 55.55 104.75 54.65 103.35 54.2 101.7 53.7 100.1 52.7 98.95 51.55 97.85 50.9 97.0 Q50.5 96.5 50.0 96.4 L49.75 96.8 49.5 97.15 49.4 98.15 49.2 98.95 48.25 99.8 47.35 100.6 47.35 100.95 46.85 101.5 46.4 102.1 46.25 103.25 45.7 103.65 Q45.55 103.9 45.35 104.5 L44.9 105.3 44.15 106.2 43.45 107.05 43.3 108.0 42.75 108.45 42.1 108.8 41.8 109.55 41.6 110.25 40.35 111.7 39.15 113.15 38.35 114.95 37.55 116.7 36.65 117.45 36.5 117.85 36.35 118.2 35.4 119.0 35.2 119.8 35.0 120.5 34.05 121.4 33.85 122.45 33.55 123.3 32.2 124.45 Q31.95 124.75 31.75 125.4 L31.4 126.35 29.9 128.35 Q28.95 129.6 28.55 130.4 L28.55 131.05 27.5 133.1 26.45 134.45 25.45 135.85 25.35 137.0 24.7 137.55 24.0 138.05 Q23.7 138.4 23.5 139.3 L23.05 140.55 22.1 141.45 20.75 144.5 19.8 145.4 19.65 146.75 18.45 147.9 18.1 149.05 17.8 150.1 15.9 153.15 15.55 153.9 15.2 154.65 14.4 155.3 Q14.0 155.95 13.35 157.55 L12.25 159.75 11.45 160.65 10.65 161.55 10.5 162.15 9.75 162.8 9.6 163.3 9.45 163.7 9.1 163.8 8.65 163.9 8.4 164.5 8.1 165.05 7.15 165.8 Q6.45 166.2 6.3 166.55 5.9 167.2 5.65 168.25 L5.05 170.0 3.95 171.65 3.55 172.7 2.85 173.4 0.55 173.55 0.3 173.1 Q-0.2 172.45 0.4 170.25 L1.35 167.35 0.65 167.15 0.2 166.65 Q-0.6 165.75 1.5 161.95 L1.7 161.2 1.9 160.4 2.45 159.6 3.0 158.75 3.15 157.75 Q3.2 157.15 3.4 156.85 L5.95 152.65 6.25 151.5 7.15 150.2 7.75 148.45 8.65 147.05 9.45 145.55 9.7 144.75 9.9 144.0 12.35 140.2 13.05 138.35 13.95 136.6 15.4 134.6 16.75 132.45 17.6 130.5 18.55 128.6 20.1 126.6 21.1 124.6 21.75 124.1 21.95 123.35 22.15 122.65 24.6 118.55 27.15 114.55 27.8 112.6 29.55 110.2 30.1 108.55 31.3 107.45 31.85 106.2 Q32.1 105.25 32.4 104.9 L33.25 103.85 34.1 102.75 34.4 101.9 34.7 101.1 36.15 98.85 Q37.05 97.5 37.25 96.35 36.7 96.05 36.5 95.2 36.3 94.25 36.8 93.65 37.0 93.05 37.9 91.9 L39.2 90.25 40.55 87.7 Q41.35 85.95 41.9 85.15 42.2 84.7 43.45 84.3 L44.75 83.7 45.2 83.05 45.2 82.65 44.8 82.25 45.0 80.35 43.85 78.5 43.65 76.95 42.15 74.6 41.75 73.5 41.45 72.25 41.05 72.0 40.75 71.2 40.45 70.45 39.05 69.25 38.8 68.1 38.25 67.35 37.65 66.5 37.15 64.7 36.5 63.0 35.7 62.1 34.95 61.2 34.6 59.85 34.25 58.55 33.4 57.65 33.15 57.05 33.05 56.35 32.45 55.45 31.9 54.55 30.55 51.3 29.05 48.8 28.45 47.1 27.95 46.45 Q27.85 46.25 27.9 45.6 L27.7 44.9 27.3 44.75 26.6 43.6 26.2 42.45 25.6 41.5 25.5 40.6 24.7 39.5 24.05 38.25 23.8 36.95 23.05 35.9 23.05 35.4 22.45 35.05 21.9 34.6 Q21.7 33.95 22.15 33.2 22.55 32.45 23.0 32.3 23.55 31.9 24.8 31.85 L26.85 31.9 Q27.0 30.8 27.5 30.65 L28.85 30.4 29.25 29.9 Q30.4 29.15 31.95 29.15 L33.1 29.0 34.15 29.1 34.95 29.65 35.7 30.3 36.5 30.4 37.5 30.45 38.15 31.15 38.65 31.9 39.2 32.15 39.8 32.45 39.8 32.6 40.15 33.35 41.75 34.8 42.25 36.55 Q42.55 37.85 42.75 38.2 L43.4 38.65 44.15 39.1 44.35 39.75 44.5 40.4 45.2 41.3 45.9 42.25 46.35 43.55 46.85 44.85 48.5 47.35 48.85 48.75 49.35 49.35 49.8 50.05 49.8 50.85 50.55 52.0 50.65 52.8 51.6 54.55 52.65 56.2 53.15 57.55 53.6 59.05 54.2 59.95 54.6 61.0 54.3 62.65 55.1 63.45 56.05 64.0 56.55 63.5 56.9 62.85 Q55.75 62.2 56.4 60.45 56.7 59.7 57.75 58.1 61.65 52.45 65.45 44.4 L66.55 42.6 67.75 41.0 68.1 40.0 68.4 39.05 68.95 38.35 69.5 37.65 69.65 36.95 69.8 36.2 70.15 35.9 70.55 35.6 70.7 35.1 70.85 34.6 71.25 34.1 71.65 33.6 71.8 32.9 71.95 32.15 72.8 30.75 73.7 29.4 74.15 27.6 74.8 26.95 75.35 25.4 76.0 23.9 Q76.95 22.35 79.2 19.95 79.55 19.65 79.7 18.65 L80.05 17.15 Q80.25 16.75 81.0 16.0 L81.9 14.75 82.05 13.5 82.5 13.0 82.85 12.5 83.25 11.35 Q83.4 10.65 83.65 10.3 L84.35 9.95 84.8 8.55 86.65 5.35 Q87.85 3.5 89.15 2.7 L90.4 2.6 91.75 2.55 92.35 1.95 93.1 1.4 93.85 1.25 94.75 1.15 95.5 0.7 Q96.0 0.25 96.3 0.2 L99.7 0.1 102.9 0.55 103.55 1.5 Q103.55 3.4 102.9 4.9 L101.55 7.5 M79.55 104.05 L78.75 104.7 75.7 105.2 72.15 105.2 72.65 106.5 73.3 107.65 73.35 110.1 73.85 110.95 74.35 111.75 74.45 113.1 75.2 113.9 Q75.85 114.9 76.45 117.0 L77.1 118.2 77.75 119.5 77.75 120.5 78.25 121.4 78.25 122.15 78.6 122.6 79.0 123.1 79.1 124.9 Q79.05 125.9 79.4 126.45 L80.2 126.6 Q80.7 126.15 81.55 125.75 L83.05 125.0 83.85 124.25 85.15 123.9 86.0 122.95 Q86.5 122.45 87.0 122.25 L88.2 122.15 88.65 121.8 89.1 121.4 90.25 121.05 90.85 120.3 91.35 119.5 92.15 119.0 93.05 118.65 94.1 117.4 Q96.75 115.75 98.1 114.25 100.1 112.1 100.5 109.45 L98.45 107.5 Q98.05 107.2 97.15 107.2 L95.65 107.0 94.85 106.2 92.3 105.9 90.65 105.35 90.25 104.95 Q89.65 104.7 88.8 105.15 L87.25 105.4 Q86.95 105.35 86.6 105.05 L86.0 104.6 82.0 104.65 80.9 104.15 79.55 104.05" fill="url(#gradient0)" fill-rule="evenodd" stroke="none"/>
    </g>
    <linearGradient gradientTransform="matrix(0.0, 0.106, 0.106, 0.0, 59.0, 86.8)" gradientUnits="userSpaceOnUse" id="gradient0" spreadMethod="pad" x1="-819.2" x2="819.2">
      <stop offset="0.0" stop-color="#ffeb00"/>
      <stop offset="0.4980392156862745" stop-color="#f09017"/>
      <stop offset="1.0" stop-color="#df001e"/>
    </linearGradient>
  </defs>
</svg>
